X:21158 
T:PADDY MACK (hornpipe) 
B:DMI.0951
Z:Nordberg/Black
R:hornpipe
%Q:1/4=150
M:C|
L:1/8
K:G
DF|G3F GBdB|cdef gfge|dBGB dBGB|cAFA cAFA|
G3F GBdB|cdef gfge|dged BGAF|G2GFG2:|
Bc|dBdB GBdg|ecec ABcA|dBdB GBdB|AGFE D2Bc|
dBdB GBdB|cdef gfge|dged BGAF|G2GFG2:|

%%%

